X: 1
T: Transposed Orphan, The
M: 6/8
L: 1/8
K: Amin
A3 AGE | cBc ~d3 | ~e3 ded | cAB AGE | ~D3 AGE | 
cBc dcd | ege ded | [1cAG AcB :| [2 cAG A3 |
|: ac'a ged | cde g3 | (3abc' a ged | ecA GEG |
Adc AGE | ~c3 dcd | ege ded | cAG A3 :|
